public/assets/icons/others.svg

<svg width="26" height="26" viewBox="0 0 26 26" fill="none" xmlns="http://www.w3.org/2000/svg">
<path d="M24.5194 6.98214C23.7567 4.39618 21.5998 2.23922 19.0138 1.47654C17.0475 0.904535 15.689 0.952202 14.7476 1.6553C13.6155 2.5014 13.4844 4.02675 13.4844 5.11119V8.07849C13.4844 11.01 14.8191 12.4996 17.4408 12.4996H20.8609C21.9334 12.4996 23.4707 12.3686 24.3168 11.2365C25.0437 10.3069 25.1033 8.94842 24.5194 6.98214Z" fill="#F2F5F9"/>
<path d="M21.2324 14.6211C20.9225 14.2636 20.4697 14.061 20.0049 14.061H15.7387C13.6413 14.061 11.9372 12.3569 11.9372 10.2596V5.99333C11.9372 5.52857 11.7346 5.07573 11.3771 4.76589C11.0315 4.45605 10.5549 4.31305 10.102 4.37263C7.30156 4.73014 4.72752 6.26742 3.04724 8.57929C1.35504 10.9031 0.735365 13.7393 1.27162 16.5755C2.04622 20.6749 5.32336 23.952 9.43468 24.7266C10.0901 24.8577 10.7455 24.9173 11.401 24.9173C13.5579 24.9173 15.6434 24.25 17.419 22.951C19.7309 21.2708 21.2681 18.6967 21.6256 15.8962C21.6852 15.4315 21.5422 14.9667 21.2324 14.6211Z" fill="#F2F5F9"/>
</svg>

<svg xmlns="http://www.w3.org/2000/svg" width="26" height="26" fill="none"><path fill="#F2F5F9" d="M24.52 6.982c-.763-2.586-2.92-4.743-5.506-5.505-1.966-.572-3.325-.525-4.266.178-1.132.846-1.264 2.372-1.264 3.456v2.967c0 2.932 1.335 4.422 3.957 4.422h3.42c1.072 0 2.61-.131 3.456-1.264.727-.93.786-2.288.202-4.254"/><path fill="#F2F5F9" d="M21.232 14.621a1.63 1.63 0 0 0-1.227-.56h-4.266a3.804 3.804 0 0 1-3.802-3.801V5.993a1.63 1.63 0 0 0-.56-1.227 1.62 1.62 0 0 0-1.275-.393c-2.8.357-5.374 1.894-7.055 4.206-1.692 2.324-2.312 5.16-1.775 7.997.774 4.099 4.051 7.376 8.163 8.15.655.132 1.31.191 1.966.191 2.157 0 4.242-.667 6.018-1.966 2.312-1.68 3.85-4.254 4.207-7.055.06-.465-.084-.93-.394-1.275"/></svg>
